X: 13
T:Grandmother's Polka
M:2/4
L:1/8
Q:320
S:Cat's Claw
R:Polka
A:Wales
Z:brian_martin12345@yahoo.com
K:G
GB AB/A/|GB AB/A/|Ge d>c|Bc/B/A2|GB AB/A/|GB AB/A/|Ge d>c|BAG2:||!
g>f ge|d2B2|g>f gB|AGA2|g>f ge|d2B2|B/A/G/A/ BA|G3z:||
